Resources/Icons/PCGEx_Editor_NormalizeWeight.svg

<?xml version="1.0" encoding="UTF-8"?>
<svg id="icons" xmlns="http://www.w3.org/2000/svg" viewBox="0 0 100 100">
  <defs>
    <style>
      .cls-1 {
        fill: #fff;
      }

      .cls-2 {
        fill: #3ec188;
      }
    </style>
  </defs>
  <path class="cls-1" d="M56.51,20.61l7.65,7.65c1.47,1.47,1.75,4.15.16,5.74-1.58,1.58-4.15,1.53-5.79-.11l-7.65-7.65-8.14,8.14c-1.58,1.58-4.1,1.48-5.74-.16-1.7-1.7-1.58-4.32-.16-5.74l8.14-8.14,5.63-5.63,5.9,5.9Z"/>
  <path class="cls-2" d="M46.41,14.71h-26.48c-2.39,0-4.16-1.77-4.16-4s2.01-3.93,4.16-3.93h61.27c2.08,0,4.16,1.7,4.16,3.93s-1.85,4-4.16,4h-34.8Z"/>
  <path class="cls-1" d="M46.6,51.76v-26.48c0-2.39,1.77-4.16,4-4.16s3.93,2.01,3.93,4.16v50.95c0,2.08-1.7,4.16-3.93,4.16s-4-1.85-4-4.16v-24.47Z"/>
  <path class="cls-1" d="M44.68,79.49l-7.65-7.65c-1.47-1.47-1.75-4.15-.16-5.74s4.15-1.53,5.79.11l7.65,7.65,8.14-8.14c1.58-1.58,4.1-1.48,5.74.16,1.7,1.7,1.58,4.32.16,5.74l-8.14,8.14-5.63,5.63-5.9-5.9Z"/>
  <path class="cls-2" d="M54.77,85.39h26.48c2.39,0,4.16,1.77,4.16,4s-2.01,3.93-4.16,3.93H19.97c-2.08,0-4.16-1.7-4.16-3.93s1.85-4,4.16-4h34.8Z"/>
</svg>

<svg id="icons" xmlns="http://www.w3.org/2000/svg" viewBox="0 0 100 100">
    <defs>
        <style>.cls-1{fill:#fff;}.cls-2{fill:#3ec188;}</style>
    </defs>
    <path class="cls-1"
          d="M56.51,20.61l7.65,7.65A4.16,4.16,0,0,1,64.32,34a4.07,4.07,0,0,1-5.79-.11l-7.65-7.65-8.15,8.14A4,4,0,0,1,37,34.22a4.11,4.11,0,0,1-.17-5.74L45,20.34l5.63-5.63Z"/>
    <path class="cls-2"
          d="M46.41,14.71H19.94a4,4,0,0,1-4.17-4,4.11,4.11,0,0,1,4.17-3.93H81.21a4.16,4.16,0,0,1,4.16,3.93,4.06,4.06,0,0,1-4.16,4H46.41Z"/>
    <path class="cls-1"
          d="M46.6,51.76V25.29a4,4,0,0,1,4-4.17,4.1,4.1,0,0,1,3.92,4.17V76.23a4.14,4.14,0,0,1-3.92,4.16,4.06,4.06,0,0,1-4-4.16V51.76Z"/>
    <path class="cls-1"
          d="M44.68,79.49,37,71.83a4.17,4.17,0,0,1-.16-5.74,4.09,4.09,0,0,1,5.79.11l7.65,7.66,8.15-8.15a4,4,0,0,1,5.74.17,4.11,4.11,0,0,1,.16,5.73L56.2,79.76l-5.62,5.63Z"/>
    <path class="cls-2"
          d="M54.77,85.39H81.25a4,4,0,0,1,4.16,4,4.11,4.11,0,0,1-4.16,3.93H20a4.15,4.15,0,0,1-4.15-3.93,4.06,4.06,0,0,1,4.15-4h34.8Z"/>
</svg>
